packages/kaspersky-hexa-ui-icons/src/iconsSVGs/28x20/FlagTl.svg

<svg width="28" height="20" viewBox="0 0 28 20" fill="none" xmlns="http://www.w3.org/2000/svg">
<g clip-path="url(#clip0_5138_1863)">
<rect width="28" height="20" rx="2" fill="white"/>
<mask id="mask0_5138_1863" style="mask-type:luminance" maskUnits="userSpaceOnUse" x="0" y="0" width="28" height="20">
<rect width="28" height="20" rx="2" fill="white"/>
</mask>
<g mask="url(#mask0_5138_1863)">
<rect width="28" height="20" fill="#FF323E"/>
<path fill-rule="evenodd" clip-rule="evenodd" d="M0 0L17.3333 10L0 20V0Z" fill="#FFCC51"/>
<path fill-rule="evenodd" clip-rule="evenodd" d="M0 0L12 10L0 20V0Z" fill="#262626"/>
<path fill-rule="evenodd" clip-rule="evenodd" d="M5.94391 10.8244L5.05963 12.7633L4.5978 10.6829L2.48049 10.4411L4.31639 9.35895L3.8921 7.27053L5.48857 8.68218L7.34366 7.6333L6.49444 9.58787L8.06524 11.028L5.94391 10.8244Z" fill="white"/>
</g>
</g>
<defs>
<clipPath id="clip0_5138_1863">
<rect width="28" height="20" fill="white"/>
</clipPath>
</defs>
</svg>

<svg xmlns="http://www.w3.org/2000/svg" width="28" height="20" fill="none" viewBox="0 0 28 20"><g clip-path="url(#a)"><rect width="28" height="20" fill="#fff" rx="2"/><mask id="b" width="28" height="20" x="0" y="0" maskUnits="userSpaceOnUse" style="mask-type:luminance"><rect width="28" height="20" fill="#fff" rx="2"/></mask><g mask="url(#b)"><path fill="#ff323e" d="M0 0h28v20H0z"/><path fill="#ffcc51" fill-rule="evenodd" d="m0 0 17.3333 10L0 20z" clip-rule="evenodd"/><path fill="#262626" fill-rule="evenodd" d="m0 0 12 10L0 20z" clip-rule="evenodd"/><path fill="#fff" fill-rule="evenodd" d="m5.944 10.8244-.8844 1.9389-.4618-2.0804-2.1173-.2418 1.8359-1.0822-.4243-2.0884 1.5965 1.4117 1.855-1.0489-.8492 1.9546 1.5708 1.4401z" clip-rule="evenodd"/></g></g><defs><clipPath id="a"><path fill="#fff" d="M0 0h28v20H0z"/></clipPath></defs></svg>
